static/logos/miro-wordmark-color.svg

<svg width="100" height="36" viewBox="0 0 100 36" fill="none" xmlns="http://www.w3.org/2000/svg">
<g clip-path="url(#clip0_1_1993)">
<path fill-rule="evenodd" clip-rule="evenodd" d="M48.6924 35.1798L43.1665 33.8615V11.6112L48.6924 10.5593V35.1798ZM87.3476 29.9334C83.3396 29.9467 80.0906 26.7111 80.0639 22.7031C80.0639 22.6898 80.0639 22.6764 80.0639 22.6631C80.0639 18.7217 83.2996 15.486 87.3342 15.486C91.3689 15.486 94.6046 18.7217 94.6046 22.6631C94.6179 26.6711 91.3689 29.9201 87.3742 29.9334C87.3742 29.9334 87.3609 29.9334 87.3476 29.9334ZM99.8775 22.6631C99.8775 29.5872 94.2717 35.1931 87.3476 35.1931C80.4235 35.1931 74.8176 29.5872 74.8176 22.6631C74.8176 15.8322 80.4368 10.2264 87.3609 10.2264C94.285 10.2264 99.8775 15.8322 99.8775 22.6631ZM28.7856 33.8748L34.2184 35.0067V20.0266C34.2184 12.8362 28.6125 10.3063 24.751 10.3063C22.2077 10.3063 20.1039 10.9188 18.2663 12.7563C16.3356 10.9188 14.0586 10.2131 12.221 10.2131C9.50467 10.2131 7.22771 11.3449 5.64315 13.2756V10.7324L0.117188 11.7843V33.8615L5.64315 34.9933V19.8535C5.64315 17.4035 7.40081 15.739 10.1039 15.739C12.6471 15.739 14.4847 17.4035 14.4847 19.8535V33.8748L19.9175 35.0067V19.8535C19.9175 17.4035 21.755 15.739 24.3915 15.739C26.9348 15.739 28.7723 17.4035 28.7723 19.8535L28.7856 33.8748ZM70.6898 10.2264L67.4408 10.6658C61.3955 12.0639 57.4541 13.9947 57.4541 20.6525V33.8748L62.9801 34.9268V21.4381C62.9801 18.3755 64.7377 16.9641 67.4541 16.4447L70.7031 15.9254L70.6898 10.2264ZM43.4328 1.1052C42.1145 2.45007 42.1145 4.58056 43.4328 5.92544C44.7777 7.31026 47.0014 7.32357 48.3729 5.9787C48.3862 5.96538 48.4128 5.93875 48.4261 5.92544C49.7444 4.59388 49.7444 2.43676 48.4261 1.1052C47.0147 -0.213044 44.8309 -0.213044 43.4328 1.1052Z" fill="#050038"/>
</g>
<defs>
<clipPath id="clip0_1_1993">
<rect width="100" height="35.2863" fill="white"/>
</clipPath>
</defs>
</svg>

<svg xmlns="http://www.w3.org/2000/svg" width="177.778" height="64" fill="none" viewBox="0 0 100 36"><g clip-path="url(#a)"><path fill="#050038" fill-rule="evenodd" d="m48.692 35.18-5.526-1.319v-22.25l5.526-1.052v24.62Zm38.656-5.247c-4.008.014-7.257-3.222-7.284-7.23v-.04c0-3.941 3.236-7.177 7.27-7.177 4.035 0 7.27 3.236 7.27 7.177.014 4.008-3.235 7.257-7.23 7.27h-.026Zm12.53-7.27c0 6.924-5.606 12.53-12.53 12.53-6.924 0-12.53-5.606-12.53-12.53 0-6.83 5.619-12.437 12.543-12.437 6.924 0 12.516 5.606 12.516 12.437ZM28.785 33.875l5.432 1.132v-14.98c0-7.19-5.606-9.72-9.467-9.72-2.543 0-4.647.612-6.485 2.45-1.93-1.838-4.207-2.544-6.045-2.544-2.716 0-4.993 1.132-6.578 3.063v-2.544L.117 11.784v22.077l5.526 1.132v-15.14c0-2.45 1.758-4.114 4.46-4.114 2.544 0 4.382 1.665 4.382 4.114v14.022l5.433 1.132V19.854c0-2.45 1.837-4.115 4.474-4.115 2.543 0 4.38 1.665 4.38 4.114l.014 14.022ZM70.69 10.226l-3.25.44c-6.044 1.398-9.986 3.329-9.986 9.986v13.223l5.526 1.052V21.438c0-3.063 1.758-4.474 4.474-4.993l3.25-.52-.014-5.699Zm-27.257-9.12a3.432 3.432 0 0 0 0 4.82c1.345 1.384 3.568 1.398 4.94.053l.053-.054a3.432 3.432 0 0 0 0-4.82 3.647 3.647 0 0 0-4.993 0Z" clip-rule="evenodd"/></g><defs><clipPath id="a"><path fill="#fff" d="M0 0h100v35.286H0z"/></clipPath></defs></svg>
